X:199
T:New Belle Catherine. THO5.199
M:C|
L:1/8
B:Thompson's Complete Collection of 200 Favourite Dances Vol.5
F:https://www.libraryofdance.org/manuals/1780c-Thompson-Compleat-5.pdf
Z:vmp. Peter Dunk 2024
N:The D.C. and FINE marks would suggest that the second strain is not repeated despite the repeat marks.
Q:1/4=140
K:D
d2d2 fdfa|g2 e2 e4|f2d2d2 cd|edcB AGFE|
d2d2 fdfa|g2 ga b2g2|fafd egec|d2d2 !fine!d4:|
|:A2 AB A2c2|d2ded2f2|g2e2f2d2|cdec AGFE|
A2 AB A2c2|d2 de d2f2|g2e2f2d2|!D.C.!a8:|
W:
W:The 1st & 2nd Couple sett and change sides ./.
W:the same back again ./:
W:Lead down the middle, up again & cast off :/.
W:hands six quite round, right and left at top :/:

